icon-themes/sifr_svg/sfx2/res/symphony/sidebar-gallery-large.svg

<svg viewBox="0 0 24 24" xmlns="http://www.w3.org/2000/svg"><path d="m2 4v11h4v-2h-2v-7h11v2h2v-4zm5 5v11h15v-11zm2 2h11v7h-11zm10 2h-1l-4 2-1-1-3 2v1h9z" fill="#555753"/></svg>

<svg xmlns="http://www.w3.org/2000/svg" viewBox="0 0 24 24">
  <path
     style="fill:#555753"
     d="M 2,4 V 15 H 6 V 13 H 4 V 6 h 11 v 2 h 2 V 4 Z M 7,9 V 20 H 22 V 9 Z m 2,2 h 11 v 7 H 9 Z m 10,2 h -1 l -4,2 -1,-1 -3,2 v 1 h 9 z"
     />
</svg>
